**kern	**kern	**dynam
*part1	*part1	*part1
*staff2	*staff1	*
*I"Piano	*	*
*clefF4	*clefG2	*
*k[b-e-]	*k[b-e-]	*
*M3/8	*M3/8	*
=1	=1	=1
!	!	!LO:DY:a
4GG	4.r	p
8D 8B-	.	.
=	=	=
4GG	4r	.
8D 8B-	8d	.
=!|:	=!|:	=!|:
!	!	!LO:DY:a
4GG	(8B-L 8g	p
.	8d 8a	.
8D 8B-	8gJ) 8b-	.
=	=	=
4GG	(8b-L 8dd	.
.	8a 8cc	.
8D 8B-	8gJ) 8b-	.
=	=	=
4DD	(8dL 8a	.
.	8g 8b-	.
8D 8A	8aJ) 8cc	.
=	=	=
4GG	(8gL 8b-	.
.	8d 8a	.
8D 8G	8B-J) 8g	.
=	=	=
4DD	(8dL 8a	.
.	8g 8b-	.
8D 8A	8aJ) 8cc	.
=	=	=
4GG	(8gL 8b-	.
.	8d 8a	.
8D 8G	8B-J) 8g	.
=	=	=
*-	*-	*-
!!!system-decoration: {(s1,s2)}
